X:19
I:linebreak $
T:Rostiboli Gioioso
C:
T:for two or three
P:Play two times through
K:clef=treble-8
M:4/4
K:Ddor
M:6/4
L:1/8
P:A
"^Bassadanza"e2eeee e4cd | e3fed e6 | A2AAAA A3GAB | c3dc2 B3cB2 | 
ABAGFG A4cd | e2eeee e4cd | e3fed e6 | A2AAAA A3GAB | c4d2 c2B4 | A2AGFG A6 :: 
P:B
B2B2c2 B2B2A2 | BABcdc B2B2B2 | d2ded2 c2cdc2 | BcBAGA B4A2 | B2B2c2 B2B2A2 | BABcdc B2B2cd | 
e4d2 c2B4 | A2AGFG A6 :: 
M:6/8
P:C
"^Salterello"e2e e2e | d3/2c/2B/2c/2 d2d | e3/2e/2e dc2 | BB/2A/2G/2A/2 B2B | e2e e2e | d3/2c/2B/2c/2 d2d | 
A3/2A/2A cB2 |  [1 AA/2G/2F/2G/2 A3 :|]  [2 AA/2G/2F/2G/2 A2A :: 
P:D
"^Piva"B2c B2A | B2c B2B | e2e dc2 | 
B3 B2A | B2c B2A | B2c B2B | e2d cB2 |  [1 A3 A2A :|]  [2 A3 A3 |] 


